src/assets/images/icon-notifications.svg

<svg height="19" viewBox="0 0 17 19" width="17" xmlns="http://www.w3.org/2000/svg"><path d="m320.0669 73.4331-1.6919-1.6919v-2.2412c-.002-1.54878-.5782-3.04181-1.6172-4.19038s-2.467-1.8711-4.0078-2.02787v-1.28175h-1.25v1.28175c-1.54083.15677-2.9688.8793-4.00779 2.02787s-1.6152 2.6416-1.61721 4.19038v2.2412l-1.69194 1.6919c-.11719.1172-.18306.2762-.18306.4419v1.875c0 .1658.06585.3247.18306.4419.11721.1173.27618.1831.44194.1831h4.375v.4855c-.01355.7929.26595 1.5628.78493 2.1624s1.24095.9865 2.02757 1.0868c.4345.0431.8731-.0052 1.2878-.1418s.7962-.3585 1.12-.6514c.3237-.2929.5826-.6503.76-1.0493.1773-.3989.2692-.8306.2697-1.2672v-.625h4.375c.1658 0 .3247-.0658.4419-.1831.1173-.1172.1831-.2761.1831-.4419v-1.875c0-.1657-.0659-.3247-.1831-.4419zm-6.0669 3.5669c0 .4973-.1975.9742-.5492 1.3258-.3516.3517-.8285.5492-1.3258.5492-.49728 0-.97419-.1975-1.32583-.5492-.35163-.3516-.54917-.8285-.54917-1.3258v-.625h3.75zm5-1.875h-13.75v-.9912l1.69187-1.6919c.11722-.1172.18309-.2762.18313-.4419v-2.5c0-1.32608.52678-2.59785 1.46447-3.53553.93768-.93769 2.20945-1.46447 3.53553-1.46447 1.3261 0 2.5979.52678 3.5355 1.46447.9377.93768 1.4645 2.20945 1.4645 3.53553v2.5c0 .1657.0659.3247.1831.4419l1.6919 1.6919z" fill="#fff" transform="translate(-304 -62)"/></svg>

<?xml version="1.0" encoding="UTF-8"?>
<svg width="17px" height="19px" viewBox="0 0 17 19" version="1.1" xmlns="http://www.w3.org/2000/svg" xmlns:xlink="http://www.w3.org/1999/xlink">
    <title>icon-notifications</title>
    <g id="Page-1" stroke="none" stroke-width="1" fill="none" fill-rule="evenodd">
        <g id="Artboard" transform="translate(-304.000000, -62.000000)" fill="#FFFFFF" fill-rule="nonzero">
            <path d="M320.0669,73.4331 L318.375,71.7412 L318.375,69.5 C318.373,67.95122 317.7968,66.45819 316.7578,65.30962 C315.7188,64.16105 314.2908,63.43852 312.75,63.28175 L312.75,62 L311.5,62 L311.5,63.28175 C309.95917,63.43852 308.5312,64.16105 307.49221,65.30962 C306.45322,66.45819 305.87701,67.95122 305.875,69.5 L305.875,71.7412 L304.18306,73.4331 C304.06587,73.5503 304,73.7093 304,73.875 L304,75.75 C304,75.9158 304.06585,76.0747 304.18306,76.1919 C304.30027,76.3092 304.45924,76.375 304.625,76.375 L309,76.375 L309,76.8605 C308.98645,77.6534 309.26595,78.4233 309.78493,79.0229 C310.30391,79.6225 311.02588,80.0094 311.8125,80.1097 C312.247,80.1528 312.6856,80.1045 313.1003,79.9679 C313.515,79.8313 313.8965,79.6094 314.2203,79.3165 C314.544,79.0236 314.8029,78.6662 314.9803,78.2672 C315.1576,77.8683 315.2495,77.4366 315.25,77 L315.25,76.375 L319.625,76.375 C319.7908,76.375 319.9497,76.3092 320.0669,76.1919 C320.1842,76.0747 320.25,75.9158 320.25,75.75 L320.25,73.875 C320.25,73.7093 320.1841,73.5503 320.0669,73.4331 Z M314,77 C314,77.4973 313.8025,77.9742 313.4508,78.3258 C313.0992,78.6775 312.6223,78.875 312.125,78.875 C311.62772,78.875 311.15081,78.6775 310.79917,78.3258 C310.44754,77.9742 310.25,77.4973 310.25,77 L310.25,76.375 L314,76.375 L314,77 Z M319,75.125 L305.25,75.125 L305.25,74.1338 L306.94187,72.4419 C307.05909,72.3247 307.12496,72.1657 307.125,72 L307.125,69.5 C307.125,68.17392 307.65178,66.90215 308.58947,65.96447 C309.52715,65.02678 310.79892,64.5 312.125,64.5 C313.4511,64.5 314.7229,65.02678 315.6605,65.96447 C316.5982,66.90215 317.125,68.17392 317.125,69.5 L317.125,72 C317.125,72.1657 317.1909,72.3247 317.3081,72.4419 L319,74.1338 L319,75.125 Z" id="icon-notifications"></path>
        </g>
    </g>
</svg>
